icon-themes/sifr_svg/cmd/lc_mergedocuments.svg

<svg viewBox="0 0 24 24" xmlns="http://www.w3.org/2000/svg"><path d="m1 1v9h7v-2h-5v-7zm11 0-4 4h2v5h4v-5h2zm9 0v7h-5v2h7v-9zm-9 1.5 1.5 1.5h-.5v5h-2v-5h-.5zm-6 8.5-3 4h2v3h2v-3h2zm12 0-3 4h2v3h2v-3h2zm-17 5v7h10v-7h-2v5h-6v-5zm12 0v7h10v-7h-2v5h-6v-5z" fill="#555753"/></svg>

<svg xmlns="http://www.w3.org/2000/svg" viewBox="0 0 24 24">
  <path
     style="fill:#555753"
     d="M 1 1 L 1 10 L 8 10 L 8 8 L 3 8 L 3 1 L 1 1 z M 12 1 L 8 5 L 10 5 L 10 10 L 14 10 L 14 5 L 16 5 L 12 1 z M 21 1 L 21 8 L 16 8 L 16 10 L 23 10 L 23 1 L 21 1 z M 12 2.5 L 13.5 4 L 13 4 L 13 9 L 11 9 L 11 4 L 10.5 4 L 12 2.5 z M 6 11 L 3 15 L 5 15 L 5 18 L 7 18 L 7 15 L 9 15 L 6 11 z M 18 11 L 15 15 L 17 15 L 17 18 L 19 18 L 19 15 L 21 15 L 18 11 z M 1 16 L 1 23 L 11 23 L 11 16 L 9 16 L 9 21 L 3 21 L 3 16 L 1 16 z M 13 16 L 13 23 L 23 23 L 23 16 L 21 16 L 21 21 L 15 21 L 15 16 L 13 16 z "
     />
</svg>
